svg/u1f470_1f3ff_200d_2642.svg

<svg viewBox="0 0 128 128" xmlns="http://www.w3.org/2000/svg">
  <defs>
    <linearGradient id="veil_1_" gradientTransform="matrix(1 0 0 -1 0 0)" gradientUnits="userSpaceOnUse" x1="63.9935" x2="63.9935" y1="-11.6424" y2="-153.177">
      <stop offset="0" stop-color="#EEEEEE"/>
      <stop offset="1" stop-color="#BDBDBD"/>
    </linearGradient>
    <linearGradient id="outfit_1_" gradientTransform="matrix(1 0 0 -1 0 0)" gradientUnits="userSpaceOnUse" x1="63.998" x2="63.998" y1="-94.6025" y2="-128.1486">
      <stop offset="0.1785" stop-color="#FAFAFA"/>
      <stop offset="0.8279" stop-color="#E0E0E0"/>
    </linearGradient>
    <radialGradient id="hairHighlights_1_" cx="63.9939" cy="-41.745737" gradientTransform="matrix(1 0 0 -1.1282 0 0)" gradientUnits="userSpaceOnUse" r="38.0919">
      <stop offset="0.7945" stop-color="#444140" stop-opacity="0"/>
      <stop offset="1" stop-color="#444140"/>
    </radialGradient>
    <linearGradient id="SVGID_1_" gradientTransform="matrix(1 0 0 -1 0 0)" gradientUnits="userSpaceOnUse" x1="63.99" x2="63.99" y1="-14.2007" y2="-24.6847">
      <stop offset="0.2533" stop-color="#FFFFFF"/>
      <stop offset="1" stop-color="#E0E0E0"/>
    </linearGradient>
  </defs>
  <path id="veil" d="M63.79,9 C-0.15,9 3.84,124 3.84,124 L5.35,124 L6.85,124 L121.16,124 L122.66,124 L124.16,124 C124.16,124 127.74,9 63.79,9 Z" fill="url(#veil_1_)"/>
  <path id="outfit" d="M113.13,98.06 C111.59,96.1 109.26,95.01 106.83,95.01 C106.21,95.01 105.58,95.08 104.97,95.23 C102.69,95.77 100.15,96.57 98.55,97.71 C97.43,98.5 96.12,98.95 94.79,98.95 C94.18,98.95 93.58,98.86 92.98,98.67 C84.29,95.87 73.87,94.45 63.42,94.45 C63.41,94.45 63.4,94.45 63.4,94.45 L63.4,94.45 C63.37,94.45 63.33,94.45 63.29,94.45 C53.09,94.46 42.87,95.66 34.25,98.23 C33.68,98.4 33.1,98.48 32.52,98.48 C31.33,98.48 30.14,98.13 29.15,97.43 C27.6,96.34 25.12,95.6 22.9,95.12 C22.34,95 21.77,94.94 21.21,94.94 C18.79,94.94 16.46,96.04 14.92,97.99 C11.97,101.73 7.94,107.53 7.94,111.39 C7.94,115.16 11.26,117.96 11.26,119.89 L11.26,124 L12.76,124 L14.26,124 L111.26,124 L112.76,124 L114.26,124 L114.26,119.89 C114.26,118.25 120.04,115.67 120.04,111.39 C120.05,107.55 116.08,101.81 113.13,98.06 Z" fill="url(#outfit_1_)"/>
  <path d="M78.43,99.5 C74.5,97.17 74.84,91.42 74.84,91.42 C74.32,89.75 71.9,90.08 70.15,90.08 L64,90.08 L64,90.08 L57.86,90.08 C56.11,90.08 53.69,89.75 53.17,91.42 C53.17,91.42 53.5,97.17 49.58,99.5 C46.51,101.32 43.04,104.03 43.04,107.81 C43.04,113.19 43.08,110.58 43.14,111.48 C43.19,112.21 53.6,112.49 64.01,112.41 C64.01,112.41 64.01,112.41 64.01,112.41 C74.42,112.49 84.83,112.21 84.88,111.48 C84.94,110.58 84.98,113.19 84.98,107.81 C84.97,104.03 81.5,101.32 78.43,99.5 Z" fill="#3C2B24"/>
  <path d="M54.51,111.97 C53.3,109.02 49.57,112.21 44.25,114.39 C38.93,116.58 34.03,116.93 35.25,119.88 C35.7,120.97 37.04,122.55 38.81,123.99 L52.88,123.99 C55.15,120.09 55.4,114.13 54.51,111.97 Z" fill="#C2185B"/>
  <path d="M54.478,110.561 C55.353,112.691 51.747,116.191 46.424,118.378 C41.101,120.564 36.076,120.61 35.201,118.48 C34.325,116.35 37.931,112.85 43.255,110.663 C48.578,108.476 53.602,108.43 54.478,110.561 Z" fill="#EC407A"/>
  <path d="M49.529,113.787 C49.867,114.609 48.48,115.958 46.432,116.8 C44.383,117.641 42.449,117.657 42.111,116.834 C41.773,116.012 43.16,114.663 45.208,113.821 C47.257,112.98 49.191,112.964 49.529,113.787 Z" fill="#D81B60"/>
  <path d="M74.72,109.38 C74.99,108.03 74.72,107.05 74.72,107.05 C73.18,105.05 68.27,105.11 63.27,104.95 C58.58,104.8 53.9,104.21 52.07,105.77 C51.42,106.32 51.65,107.76 51.69,108.65 C51.87,112.51 56.21,123.42 62.41,123.99 L63.45,123.99 C71.75,123.32 73.96,113.09 74.72,109.38 Z" fill="#C2185B"/>
  <path d="M63.44,124 L62.4,124 C62.51,124.01 62.62,124.03 62.73,124.03 C62.97,124.04 63.21,124.02 63.44,124 Z" fill="#C2185B"/>
  <path d="M63.396,102.937 C69.755,103.136 74.852,105.141 74.781,107.416 C74.71,109.69 69.497,111.372 63.138,111.173 C56.779,110.974 51.681,108.969 51.752,106.695 C51.824,104.42 57.037,102.738 63.396,102.937 Z" fill="#EC407A"/>
  <path d="M63.321,106.331 C65.607,106.403 67.438,107.123 67.413,107.94 C67.387,108.757 65.514,109.361 63.229,109.29 C60.943,109.218 59.111,108.498 59.137,107.681 C59.163,106.864 61.036,106.26 63.321,106.331 Z" fill="#D81B60"/>
  <path d="M92.17,119.89 C93.38,116.94 88.49,116.58 83.17,114.4 C77.85,112.22 74.12,109.02 72.91,111.98 C72.02,114.14 72.27,120.1 74.55,124.01 L88.62,124.01 C90.39,122.55 91.72,120.97 92.17,119.89 Z" fill="#C2185B"/>
  <path d="M85.162,109.54 C90.485,111.727 93.863,115.781 92.707,118.596 C91.55,121.411 86.298,121.92 80.974,119.734 C75.651,117.547 72.273,113.492 73.43,110.677 C74.586,107.862 79.839,107.353 85.162,109.54 Z" fill="#EC407A"/>
  <path d="M83.929,113.672 C86.1,114.564 87.477,116.219 87.005,117.368 C86.533,118.518 84.39,118.726 82.219,117.834 C80.048,116.942 78.67,115.287 79.142,114.138 C79.615,112.989 81.758,112.78 83.929,113.672 Z" fill="#D81B60"/>
  <path d="M61.74,121 C59.37,116.64 52.36,115.87 52.36,115.87 C52.36,115.87 50.24,120.08 50.77,124 L62.58,124 C62.5,122.96 62.26,121.93 61.74,121 Z" fill="#2E7D32"/>
  <path d="M49.62,122.43 C45.16,120.25 39,123.7 39,123.7 C39,123.7 39.02,123.81 39.06,124.01 L51.71,124.01 C51.12,123.37 50.43,122.82 49.62,122.43 Z" fill="#43A047"/>
  <path d="M77.07,118.89 C77.07,118.89 70.08,119.66 67.7,124 L78.62,124 C78.23,121.21 77.07,118.89 77.07,118.89 Z" fill="#2E7D32"/>
  <path d="M73.12,116.56 C73.12,116.56 66.07,116.31 63.1,120.29 C62.28,121.39 61.87,122.69 61.68,124 L73.72,124 C74.4,120.41 73.12,116.56 73.12,116.56 Z" fill="#43A047"/>
  <path d="M79.29,122.8 C78.65,123.11 78.1,123.53 77.59,124 L89.83,124 C89.12,123.62 83.46,120.75 79.29,122.8 Z" fill="#43A047"/>
  <path d="M91.33,50.43 L36.67,50.43 C30.78,50.43 25.96,55.57 25.96,61.84 C25.96,68.11 30.78,73.25 36.67,73.25 L91.32,73.25 C97.21,73.25 102.03,68.11 102.03,61.84 C102.03,55.57 97.22,50.43 91.33,50.43 Z" fill="#3C2B24"/>
  <path d="M64,11.07 L64,11.07 L64,11.07 C46.6,11.07 30.48,29.68 30.48,56.47 C30.48,83.11 47.09,96.28 64,96.28 C80.91,96.28 97.52,83.1 97.52,56.46 C97.52,29.68 81.4,11.07 64,11.07 Z" fill="#70534A"/>
  <path d="M39.98,50.73 C42.97,46.5 49.76,46.1 53.65,49.25 C54.27,49.75 55.09,50.45 55.33,51.23 C55.73,52.5 54.51,53.49 53.32,53.19 C52.56,53 51.85,52.59 51.1,52.36 C49.73,51.93 48.74,51.81 47.51,51.81 C45.69,51.8 44.52,52.03 42.79,52.73 C42.08,53.02 41.5,53.48 40.69,53.14 C39.77,52.75 39.42,51.56 39.98,50.73 Z" fill="#1A1717"/>
  <path d="M86.04,53.13 C85.75,53 85.47,52.84 85.18,52.72 C83.4,51.98 82.39,51.79 80.46,51.8 C78.76,51.81 77.75,52.04 76.42,52.49 C75.61,52.77 74.58,53.47 73.68,53.2 C72.36,52.8 72.4,51.36 73.12,50.44 C73.98,49.36 75.16,48.54 76.41,48 C79.31,46.74 82.85,46.92 85.58,48.55 C86.47,49.08 87.44,49.81 87.98,50.73 C88.77,52.03 87.58,53.76 86.04,53.13 Z" fill="#1A1717"/>
  <path d="M52.49,58.81 A4.93 5.1 0 1 1 42.63,58.81 A4.93 5.1 0 1 1 52.49,58.81 Z" fill="#1A1717"/>
  <path d="M85.37,58.81 A4.93 5.1 0 1 1 75.51,58.81 A4.93 5.1 0 1 1 85.37,58.81 Z" fill="#1A1717"/>
  <path id="mouth_2_" d="M72.42,76.14 C69.24,78.03 58.79,78.03 55.61,76.14 C53.78,75.05 51.91,76.72 52.67,78.38 C53.42,80.01 59.11,83.8 64.04,83.8 C68.97,83.8 74.59,80.01 75.34,78.38 C76.09,76.72 74.25,75.05 72.42,76.14 Z" fill="#1A1717"/>
  <path id="nose_2_" d="M67.86,68.06 C67.75,68.02 67.65,67.99 67.54,67.98 L60.46,67.98 C60.35,67.99 60.24,68.02 60.14,68.06 C59.5,68.32 59.15,68.98 59.45,69.69 C59.75,70.4 61.16,72.38 64,72.38 C66.84,72.38 68.25,70.39 68.55,69.69 C68.85,68.98 68.5,68.32 67.86,68.06 Z" fill="#33251F"/>
  <path id="hair_7_" d="M64.01,4.03 L64.01,4.03 C64,4.03 64,4.03 63.99,4.03 C63.98,4.03 63.98,4.03 63.97,4.03 L63.97,4.03 C18.54,4.27 27.85,56.17 27.85,56.17 C27.85,56.17 29.89,61.52 30.82,63.88 C30.95,64.22 31.45,64.18 31.53,63.83 C32.5,59.49 35.99,44.1 37.75,39.42 C38.79,36.66 41.65,35.06 44.54,35.59 C48.99,36.4 56.09,37.4 63.91,37.4 C63.94,37.4 63.97,37.4 63.99,37.4 C64.01,37.4 64.05,37.4 64.07,37.4 C71.89,37.4 78.99,36.4 83.44,35.59 C86.34,35.06 89.2,36.67 90.23,39.42 C91.98,44.08 95.45,59.38 96.43,63.78 C96.51,64.14 97.01,64.17 97.14,63.83 L100.12,56.16 C100.14,56.17 109.45,4.27 64.01,4.03 Z" fill="#232020"/>
  <path id="hairHighlights" d="M100.14,56.17 C100.14,56.17 98.09,61.54 97.16,63.9 C97.03,64.23 96.54,64.2 96.46,63.84 C95.5,59.52 92.01,44.11 90.24,39.42 C89.21,36.67 86.35,35.06 83.45,35.59 C79,36.4 71.9,37.4 64.08,37.4 L63.91,37.4 C56.08,37.4 48.99,36.4 44.54,35.59 C41.64,35.06 38.78,36.67 37.74,39.42 C35.99,44.09 32.51,59.41 31.53,63.8 C31.45,64.15 30.96,64.18 30.82,63.85 L27.85,56.17 C27.85,56.17 25.69,44.14 28.52,31.63 C29.39,27.83 30.71,23.98 32.7,20.42 C37.08,12.56 44.69,6.06 57.68,4.43 C57.77,4.42 57.86,4.4 57.95,4.39 L57.98,4.39 C59.24,4.24 60.54,4.14 61.9,4.08 C62.58,4.05 63.27,4.03 63.98,4.03 L63.99,4.03 C64,4.03 64,4.03 64.01,4.03 C80.9,4.12 90.23,11.35 95.27,20.4 C97.27,23.96 98.6,27.81 99.46,31.62 C102.3,44.13 100.14,56.17 100.14,56.17 Z" fill="url(#hairHighlights_1_)"/>
  <path d="M99.46,31.62 C96.15,29.59 82.53,21.99 64,21.99 C45.42,21.99 31.78,29.63 28.52,31.63 C29.39,27.83 30.71,23.98 32.7,20.42 C35.77,18.89 47.2,13.84 64,13.84 C80.73,13.84 92.13,18.84 95.27,20.4 C97.27,23.96 98.6,27.81 99.46,31.62 Z" fill="url(#SVGID_1_)"/>
</svg>

<svg viewBox="0 0 128 128" xmlns="http://www.w3.org/2000/svg">
  <linearGradient id="veil_1_" gradientTransform="matrix(1 0 0 -1 0 128)" gradientUnits="userSpaceOnUse" x1="63.9935" x2="63.9935" y1="116.3576" y2="-25.177">
    <stop offset="0" stop-color="#EEEEEE"/>
    <stop offset="1" stop-color="#BDBDBD"/>
  </linearGradient>
  <path id="veil" d="M63.79,9C-0.15,9,3.84,124,3.84,124h1.51h1.5h114.31h1.5h1.5 C124.16,124,127.74,9,63.79,9z" fill="url(#veil_1_)"/>
  <linearGradient id="outfit_1_" gradientTransform="matrix(1 0 0 -1 0 128)" gradientUnits="userSpaceOnUse" x1="63.998" x2="63.998" y1="33.3975" y2="-0.1486">
    <stop offset="0.1785" stop-color="#FAFAFA"/>
    <stop offset="0.8279" stop-color="#E0E0E0"/>
  </linearGradient>
  <path id="outfit" d="M113.13,98.06c-1.54-1.96-3.87-3.05-6.3-3.05c-0.62,0-1.25,0.07-1.86,0.22 c-2.28,0.54-4.82,1.34-6.42,2.48c-1.12,0.79-2.43,1.24-3.76,1.24c-0.61,0-1.21-0.09-1.81-0.28c-8.69-2.8-19.11-4.22-29.56-4.22 c-0.01,0-0.02,0-0.02,0l0,0c-0.03,0-0.07,0-0.11,0c-10.2,0.01-20.42,1.21-29.04,3.78c-0.57,0.17-1.15,0.25-1.73,0.25 c-1.19,0-2.38-0.35-3.37-1.05c-1.55-1.09-4.03-1.83-6.25-2.31c-0.56-0.12-1.13-0.18-1.69-0.18c-2.42,0-4.75,1.1-6.29,3.05 c-2.95,3.74-6.98,9.54-6.98,13.4c0,3.77,3.32,6.57,3.32,8.5V124h1.5h1.5h97h1.5h1.5v-4.11c0-1.64,5.78-4.22,5.78-8.5 C120.05,107.55,116.08,101.81,113.13,98.06z" fill="url(#outfit_1_)"/>
  <g id="neck">
    <path d="M78.43,99.5c-3.93-2.33-3.59-8.08-3.59-8.08c-0.52-1.67-2.94-1.34-4.69-1.34H64h0h-6.14 c-1.75,0-4.17-0.33-4.69,1.34c0,0,0.33,5.75-3.59,8.08c-3.07,1.82-6.54,4.53-6.54,8.31c0,5.38,0.04,2.77,0.1,3.67 c0.05,0.73,10.46,1.01,20.87,0.93c0,0,0,0,0,0c10.41,0.08,20.82-0.2,20.87-0.93c0.06-0.9,0.1,1.71,0.1-3.67 C84.97,104.03,81.5,101.32,78.43,99.5z" fill="#3C2B24"/>
  </g>
  <g>
    <g>
      <g>
        <path d="M54.51,111.97c-1.21-2.95-4.94,0.24-10.26,2.42c-5.32,2.19-10.22,2.54-9,5.49 c0.45,1.09,1.79,2.67,3.56,4.11h14.07C55.15,120.09,55.4,114.13,54.51,111.97z" fill="#C2185B"/>
        <ellipse cx="44.84" cy="114.52" fill="#EC407A" rx="10.42" ry="4.17" transform="matrix(0.925 -0.38 0.38 0.925 -40.1555 25.6286)"/>
        <ellipse cx="45.82" cy="115.31" fill="#D81B60" rx="4.01" ry="1.61" transform="matrix(0.925 -0.38 0.38 0.925 -40.3814 26.0602)"/>
      </g>
      <g>
        <path d="M74.72,109.38c0.27-1.35,0-2.33,0-2.33c-1.54-2-6.45-1.94-11.45-2.1 c-4.69-0.15-9.37-0.74-11.2,0.82c-0.65,0.55-0.42,1.99-0.38,2.88c0.18,3.86,4.52,14.77,10.72,15.34h1.04 C71.75,123.32,73.96,113.09,74.72,109.38z" fill="#C2185B"/>
        <path d="M63.44,124H62.4c0.11,0.01,0.22,0.03,0.33,0.03C62.97,124.04,63.21,124.02,63.44,124z" fill="#C2185B"/>
        <ellipse cx="63.27" cy="107.06" fill="#EC407A" rx="4.12" ry="11.52" transform="matrix(0.0313 -0.9995 0.9995 0.0313 -45.7201 166.9425)"/>
        <ellipse cx="63.28" cy="107.81" fill="#D81B60" rx="1.48" ry="4.14" transform="matrix(0.0313 -0.9995 0.9995 0.0313 -46.4618 167.6845)"/>
      </g>
      <g>
        <path d="M92.17,119.89c1.21-2.95-3.68-3.31-9-5.49s-9.05-5.38-10.26-2.42c-0.89,2.16-0.64,8.12,1.64,12.03 h14.07C90.39,122.55,91.72,120.97,92.17,119.89z" fill="#C2185B"/>
        <ellipse cx="83.07" cy="114.64" fill="#EC407A" rx="5.51" ry="10.42" transform="matrix(0.38 -0.925 0.925 0.38 -54.5405 147.9133)"/>
        <ellipse cx="83.07" cy="115.76" fill="#D81B60" rx="2.25" ry="4.25" transform="matrix(0.38 -0.925 0.925 0.38 -55.5709 148.604)"/>
      </g>
    </g>
    <path d="M61.74,121c-2.37-4.36-9.38-5.13-9.38-5.13s-2.12,4.21-1.59,8.13h11.81 C62.5,122.96,62.26,121.93,61.74,121z" fill="#2E7D32"/>
    <path d="M49.62,122.43c-4.46-2.18-10.62,1.27-10.62,1.27s0.02,0.11,0.06,0.31h12.65 C51.12,123.37,50.43,122.82,49.62,122.43z" fill="#43A047"/>
    <path d="M77.07,118.89c0,0-6.99,0.77-9.37,5.11h10.92C78.23,121.21,77.07,118.89,77.07,118.89z" fill="#2E7D32"/>
    <path d="M73.12,116.56c0,0-7.05-0.25-10.02,3.73c-0.82,1.1-1.23,2.4-1.42,3.71h12.04 C74.4,120.41,73.12,116.56,73.12,116.56z" fill="#43A047"/>
    <path d="M79.29,122.8c-0.64,0.31-1.19,0.73-1.7,1.2h12.24C89.12,123.62,83.46,120.75,79.29,122.8z" fill="#43A047"/>
  </g>
  <g id="ears_2_">
    <path d="M91.33,50.43H36.67c-5.89,0-10.71,5.14-10.71,11.41s4.82,11.41,10.71,11.41h54.65 c5.89,0,10.71-5.14,10.71-11.41S97.22,50.43,91.33,50.43z" fill="#3C2B24"/>
  </g>
  <g id="head_1_">
    <path d="M64,11.07L64,11.07L64,11.07c-17.4,0-33.52,18.61-33.52,45.4c0,26.64,16.61,39.81,33.52,39.81 S97.52,83.1,97.52,56.46C97.52,29.68,81.4,11.07,64,11.07z" fill="#70534A"/>
  </g>
  <g id="eyebrows">
    <path d="M39.98,50.73c2.99-4.23,9.78-4.63,13.67-1.48c0.62,0.5,1.44,1.2,1.68,1.98 c0.4,1.27-0.82,2.26-2.01,1.96c-0.76-0.19-1.47-0.6-2.22-0.83c-1.37-0.43-2.36-0.55-3.59-0.55c-1.82-0.01-2.99,0.22-4.72,0.92 c-0.71,0.29-1.29,0.75-2.1,0.41C39.77,52.75,39.42,51.56,39.98,50.73z" fill="#1A1717"/>
    <path d="M86.04,53.13c-0.29-0.13-0.57-0.29-0.86-0.41c-1.78-0.74-2.79-0.93-4.72-0.92 c-1.7,0.01-2.71,0.24-4.04,0.69c-0.81,0.28-1.84,0.98-2.74,0.71c-1.32-0.4-1.28-1.84-0.56-2.76c0.86-1.08,2.04-1.9,3.29-2.44 c2.9-1.26,6.44-1.08,9.17,0.55c0.89,0.53,1.86,1.26,2.4,2.18C88.77,52.03,87.58,53.76,86.04,53.13z" fill="#1A1717"/>
  </g>
  <g id="eyes_2_">
    <ellipse cx="47.56" cy="58.81" fill="#1A1717" rx="4.93" ry="5.1"/>
    <ellipse cx="80.44" cy="58.81" fill="#1A1717" rx="4.93" ry="5.1"/>
  </g>
  <path id="mouth_2_" d="M72.42,76.14c-3.18,1.89-13.63,1.89-16.81,0c-1.83-1.09-3.7,0.58-2.94,2.24 c0.75,1.63,6.44,5.42,11.37,5.42s10.55-3.79,11.3-5.42C76.09,76.72,74.25,75.05,72.42,76.14z" fill="#1A1717"/>
  <path id="nose_2_" d="M67.86,68.06c-0.11-0.04-0.21-0.07-0.32-0.08h-7.08c-0.11,0.01-0.22,0.04-0.32,0.08 c-0.64,0.26-0.99,0.92-0.69,1.63c0.3,0.71,1.71,2.69,4.55,2.69s4.25-1.99,4.55-2.69C68.85,68.98,68.5,68.32,67.86,68.06z" fill="#33251F"/>
  <g id="hairGroup">
    <path id="hair_7_" d="M64.01,4.03L64.01,4.03c-0.01,0-0.01,0-0.02,0s-0.01,0-0.02,0l0,0 C18.54,4.27,27.85,56.17,27.85,56.17s2.04,5.35,2.97,7.71c0.13,0.34,0.63,0.3,0.71-0.05c0.97-4.34,4.46-19.73,6.22-24.41 c1.04-2.76,3.9-4.36,6.79-3.83c4.45,0.81,11.55,1.81,19.37,1.81c0.03,0,0.06,0,0.08,0s0.06,0,0.08,0c7.82,0,14.92-1,19.37-1.81 c2.9-0.53,5.76,1.08,6.79,3.83c1.75,4.66,5.22,19.96,6.2,24.36c0.08,0.36,0.58,0.39,0.71,0.05l2.98-7.67 C100.14,56.17,109.45,4.27,64.01,4.03z" fill="#232020"/>
    <radialGradient id="hairHighlights_1_" cx="63.9939" cy="80.9014" gradientTransform="matrix(1 0 0 -1.1282 0 138.3705)" gradientUnits="userSpaceOnUse" r="38.0919">
      <stop offset="0.7945" stop-color="#444140" stop-opacity="0"/>
      <stop offset="1" stop-color="#444140"/>
    </radialGradient>
    <path id="hairHighlights" d="M100.14,56.17c0,0-2.05,5.37-2.98,7.73 c-0.13,0.33-0.62,0.3-0.7-0.06c-0.96-4.32-4.45-19.73-6.22-24.42c-1.03-2.75-3.89-4.36-6.79-3.83C79,36.4,71.9,37.4,64.08,37.4 h-0.17c-7.83,0-14.92-1-19.37-1.81c-2.9-0.53-5.76,1.08-6.8,3.83c-1.75,4.67-5.23,19.99-6.21,24.38c-0.08,0.35-0.57,0.38-0.71,0.05 l-2.97-7.68c0,0-2.16-12.03,0.67-24.54c0.87-3.8,2.19-7.65,4.18-11.21c4.38-7.86,11.99-14.36,24.98-15.99 c0.09-0.01,0.18-0.03,0.27-0.04h0.03c1.26-0.15,2.56-0.25,3.92-0.31c0.68-0.03,1.37-0.05,2.08-0.05h0.01c0.01,0,0.01,0,0.02,0 C80.9,4.12,90.23,11.35,95.27,20.4c2,3.56,3.33,7.41,4.19,11.22C102.3,44.13,100.14,56.17,100.14,56.17z" fill="url(#hairHighlights_1_)"/>
  </g>
  <g id="ribbon">
    <linearGradient id="SVGID_1_" gradientTransform="matrix(1 0 0 -1 0 128)" gradientUnits="userSpaceOnUse" x1="63.99" x2="63.99" y1="113.7993" y2="103.3153">
      <stop offset="0.2533" stop-color="#FFFFFF"/>
      <stop offset="1" stop-color="#E0E0E0"/>
    </linearGradient>
    <path d="M99.46,31.62c-3.31-2.03-16.93-9.63-35.46-9.63c-18.58,0-32.22,7.64-35.48,9.64 c0.87-3.8,2.19-7.65,4.18-11.21c3.07-1.53,14.5-6.58,31.3-6.58c16.73,0,28.13,5,31.27,6.56C97.27,23.96,98.6,27.81,99.46,31.62z" fill="url(#SVGID_1_)"/>
  </g>
</svg>
